X:1
T:Ay luna que reluces
T:Ay luna que reluces
T:Canciero de Uppsala - 16ème siècle                                                                                  Anonyme
%%score [ 1 2 3 4 ]
L:1/8
Q:1/2=100
M:3/2
K:C
V:1 treble nm="Soprano" snm="S."
V:2 treble nm="Alto" snm="A."
V:3 treble-8 nm="Tenor" snm="T."
V:4 bass nm="Bass" snm="B."
V:1
 A8 E4 | G6 G2 A4 | F4 D8 | E4 F4 G4 | A4 G6 A2 | F4 E8 | E4 F4 G4 | A4 G6 A2 | F4 E8 | z12 | %10
w: Ay lu-|na que re-|lu- ces|to- da la|no- che me.a-|lum- bres|to- da la|no- che me.a-|lum- bres||
 E4 F4 G4 | A4 G6 A2 | F4 E8- | E12!fine! || A8 E4 | (G6 A2) B4 | c4 A8 | z12 | z12 | z12 | A8 E4 | %21
w: to- da la|no- che me.a-|lum- bres|_|Ay lu-|na _ tan|bel- la||||A- lum-|
 G6 A2 B4 | c4 A8 | z12 | z12 | z12!D.C.! |] %26
w: bre me la|sier- ra||||
V:2
 z12 | z12 | z12 | C4 D4 E4 | C4 E6 C2 | D4 ^C8 | C4 D4 E4 | F4 E6 E2 | D4 ^C8 | z4 A,4 B,4 | %10
w: |||to- da la|no- che me.a-|lum- bres|to- da la|no- che me.a-|lum- bres|to- da|
 C4 D4 B,4 | A,4 D8- | D4 B,8 | ^C12 || z12 | z12 | z12 | E8 C4 | D4 G8 | E4 E8 | z12 | z12 | z12 | %23
w: la no- che|me.a- lum|_ _|bres.||||Ay lu-|na tan|bel- la||||
 E8 C4 | D4 G6 G2 | E4 E8 |] %26
w: A- lum-|bre me la|sier- ra|
V:3
 z12 | z12 | z12 | A4 d4 c4 | A4 E6 F2 | D4 A8 | A4 A4 c4 | c4 c6 c2 | A4 A8 | E4 F4 G4 | (A8 G4) | %11
w: |||to- da la|no- che me.a-|lum- bres|to- da la|no- che me.a-|lum- bres|to- da la|no _|
 c4 (B6 A2) | (A8 ^G4) | A12 || z12 | z12 | z12 | c8 A4 | B4 d8 | c4 c8 | z12 | z12 | z12 | c8 A4 | %24
w: che me.a _|lum _|bres||||Ay lu-|na tan|bel- la||||A- lum-|
 B4 d6 d2 | c4 c8 |] %26
w: bre me la|sier- ra|
V:4
 z12 | z12 | z12 | z12 | z12 | z12 | A,,4 D,4 C,4 | F,4 C,6 C,2 | D,4 A,,8 | z12 | z4 D,4 E,4 | %11
w: ||||||to- da la|no- che me.a-|lum- bres||to- da|
 F,4 G,6 F,2 | D,4 E,8 | E,12 || z12 | z12 | z12 | A,8 A,4 | G,8 G,4 | A,4 A,,8 | z12 | z12 | z12 | %23
w: la no- che|mea- lum-|bres||||Ay lu-|na tan|bel- la||||
 A,8 A,4 | G,6 G,2 G,4 | A,4 A,,8 |] %26
w: A- lum-|bre me la|sier- ra|

